images/pCain.svg

<svg viewBox="0 0 77.19 47.44" xmlns="http://www.w3.org/2000/svg"><g fill="none" stroke="#5d6268"><path d="m1.29 20.71a.76.76 0 0 1 -.24-.56v-18.86a.76.76 0 0 1 .24-.56.76.76 0 0 1 .55-.23h8.85a10.29 10.29 0 0 1 6.44 1.81 6.33 6.33 0 0 1 2.35 5.35 6 6 0 0 1 -2.34 5.21 10.7 10.7 0 0 1 -6.45 1.7h-2v5.58a.8.8 0 0 1 -.79.79h-6a.76.76 0 0 1 -.61-.23zm9.26-11.54a1.3 1.3 0 0 0 .93-.39 1.58 1.58 0 0 0 .41-1.18 2.14 2.14 0 0 0 -.32-1.17 1.14 1.14 0 0 0 -1-.5h-2.07v3.24z"/><path d="m18.62 20.75a.61.61 0 0 1 -.19-.45.66.66 0 0 1 0-.21l6.57-18.63a1.51 1.51 0 0 1 .44-.67 1.25 1.25 0 0 1 .84-.29h6.34a1.3 1.3 0 0 1 .88.29 1.6 1.6 0 0 1 .44.67l6.51 18.63a.66.66 0 0 1 0 .21.65.65 0 0 1 -.19.45.62.62 0 0 1 -.46.19h-5.4a1.09 1.09 0 0 1 -1.14-.73l-.7-1.93h-6.25l-.7 1.93a1.07 1.07 0 0 1 -1.14.73h-5.4a.61.61 0 0 1 -.45-.19zm9.18-8.16h3.3l-1.66-5.43z"/><path d="m43.91 19.23a7.13 7.13 0 0 1 -2.56-6v-11.94a.76.76 0 0 1 .24-.56.76.76 0 0 1 .55-.23h5.72a.79.79 0 0 1 .56.23.75.75 0 0 1 .23.56v11.82a2.34 2.34 0 0 0 .54 1.68 2.59 2.59 0 0 0 3.24 0 2.34 2.34 0 0 0 .57-1.68v-11.82a.76.76 0 0 1 .24-.56.76.76 0 0 1 .52-.23h5.73a.76.76 0 0 1 .51.23.76.76 0 0 1 .24.56v11.94a7.17 7.17 0 0 1 -2.54 6 10.85 10.85 0 0 1 -6.9 2 10.9 10.9 0 0 1 -6.89-2z"/><path d="m63.55 20.71a.76.76 0 0 1 -.24-.56v-18.86a.76.76 0 0 1 .24-.56.76.76 0 0 1 .55-.23h5.84a.79.79 0 0 1 .79.79v12.23h5.17a.82.82 0 0 1 .79.79v5.84a.8.8 0 0 1 -.79.79h-11.8a.76.76 0 0 1 -.55-.23z"/><path d="m3.3 45a7.43 7.43 0 0 1 -2.77-6c0-.53 0-1.39 0-2.57s0-2.09 0-2.63a7.38 7.38 0 0 1 2.83-5.91 11.22 11.22 0 0 1 7-2 14.39 14.39 0 0 1 4.83.79 8.17 8.17 0 0 1 3.6 2.47 6.56 6.56 0 0 1 1.41 4.22.65.65 0 0 1 -.64.64h-6a1 1 0 0 1 -.68-.17 1.51 1.51 0 0 1 -.4-.67 2.35 2.35 0 0 0 -.85-1.17 2.42 2.42 0 0 0 -1.35-.35 2.15 2.15 0 0 0 -1.57.54 2.58 2.58 0 0 0 -.59 1.81v2.42s0 1.92 0 2.48a2.58 2.58 0 0 0 .59 1.83 2.15 2.15 0 0 0 1.57.54 2.12 2.12 0 0 0 2.19-1.58 1.29 1.29 0 0 1 .37-.67 1.1 1.1 0 0 1 .71-.18h6a.62.62 0 0 1 .45.16.61.61 0 0 1 .19.45 6.54 6.54 0 0 1 -1.41 4.22 8.09 8.09 0 0 1 -3.6 2.47 14.15 14.15 0 0 1 -4.83.79 11.5 11.5 0 0 1 -7.05-1.93z"/><path d="m21.62 46.46a.61.61 0 0 1 -.19-.45.66.66 0 0 1 0-.21l6.57-18.63a1.46 1.46 0 0 1 .44-.67 1.21 1.21 0 0 1 .87-.29h6.34a1.25 1.25 0 0 1 .88.29 1.54 1.54 0 0 1 .44.67l6.48 18.63a.66.66 0 0 1 0 .21.65.65 0 0 1 -.19.45.62.62 0 0 1 -.46.19h-5.4a1.1 1.1 0 0 1 -1.14-.73l-.67-1.92h-6.28l-.7 1.93a1.08 1.08 0 0 1 -1.14.73h-5.4a.61.61 0 0 1 -.45-.2zm9.18-8.16h3.3l-1.66-5.44z"/><path d="m47 46.41a.76.76 0 0 1 -.23-.55v-18.86a.79.79 0 0 1 .79-.79h6a.79.79 0 0 1 .79.79v18.86a.8.8 0 0 1 -.79.79h-6a.76.76 0 0 1 -.56-.24z"/><path d="m58.52 46.41a.76.76 0 0 1 -.23-.55v-18.86a.79.79 0 0 1 .79-.79h4.61a1.27 1.27 0 0 1 1.2.67l4.93 8.12v-8a.8.8 0 0 1 .79-.79h5.29a.8.8 0 0 1 .79.79v18.86a.82.82 0 0 1 -.79.79h-4.62a1.21 1.21 0 0 1 -.76-.21 1.87 1.87 0 0 1 -.43-.46l-4.94-7.45v7.33a.8.8 0 0 1 -.79.79h-5.28a.76.76 0 0 1 -.56-.24z"/></g></svg>

<svg xmlns="http://www.w3.org/2000/svg" viewBox="0 0 77.19 47.44"><defs><style>.cls-1{fill:none;stroke:#5d6268;}</style></defs><title>pCain</title><g id="Layer_2" data-name="Layer 2"><g id="Layer_1-2" data-name="Layer 1"><path class="cls-1" d="M1.29,20.71a.76.76,0,0,1-.24-.56V1.29A.76.76,0,0,1,1.29.73.76.76,0,0,1,1.84.5h8.85a10.29,10.29,0,0,1,6.44,1.81,6.33,6.33,0,0,1,2.35,5.35,6,6,0,0,1-2.34,5.21,10.7,10.7,0,0,1-6.45,1.7h-2v5.58a.8.8,0,0,1-.79.79h-6A.76.76,0,0,1,1.29,20.71ZM10.55,9.17a1.3,1.3,0,0,0,.93-.39,1.58,1.58,0,0,0,.41-1.18,2.14,2.14,0,0,0-.32-1.17,1.14,1.14,0,0,0-1-.5H8.5V9.17Z"/><path class="cls-1" d="M18.62,20.75a.61.61,0,0,1-.19-.45.66.66,0,0,1,0-.21L25,1.46a1.51,1.51,0,0,1,.44-.67A1.25,1.25,0,0,1,26.28.5h6.34a1.3,1.3,0,0,1,.88.29,1.6,1.6,0,0,1,.44.67l6.51,18.63a.66.66,0,0,1,0,.21.65.65,0,0,1-.19.45.62.62,0,0,1-.46.19h-5.4a1.09,1.09,0,0,1-1.14-.73l-.7-1.93H26.31l-.7,1.93a1.07,1.07,0,0,1-1.14.73h-5.4A.61.61,0,0,1,18.62,20.75Zm9.18-8.16h3.3L29.44,7.16Z"/><path class="cls-1" d="M43.91,19.23a7.13,7.13,0,0,1-2.56-6V1.29a.76.76,0,0,1,.24-.56A.76.76,0,0,1,42.14.5h5.72a.79.79,0,0,1,.56.23.75.75,0,0,1,.23.56V13.11a2.34,2.34,0,0,0,.54,1.68,2.59,2.59,0,0,0,3.24,0A2.34,2.34,0,0,0,53,13.11V1.29a.76.76,0,0,1,.24-.56A.76.76,0,0,1,53.76.5h5.73A.76.76,0,0,1,60,.73a.76.76,0,0,1,.24.56V13.23a7.17,7.17,0,0,1-2.54,6,10.85,10.85,0,0,1-6.9,2A10.9,10.9,0,0,1,43.91,19.23Z"/><path class="cls-1" d="M63.55,20.71a.76.76,0,0,1-.24-.56V1.29a.76.76,0,0,1,.24-.56A.76.76,0,0,1,64.1.5h5.84a.79.79,0,0,1,.79.79V13.52H75.9a.82.82,0,0,1,.79.79v5.84a.8.8,0,0,1-.79.79H64.1A.76.76,0,0,1,63.55,20.71Z"/><path class="cls-1" d="M3.3,45A7.43,7.43,0,0,1,.53,39c0-.53,0-1.39,0-2.57s0-2.09,0-2.63a7.38,7.38,0,0,1,2.83-5.91,11.22,11.22,0,0,1,7-2,14.39,14.39,0,0,1,4.83.79,8.17,8.17,0,0,1,3.6,2.47,6.56,6.56,0,0,1,1.41,4.22.65.65,0,0,1-.64.64h-6a1,1,0,0,1-.68-.17,1.51,1.51,0,0,1-.4-.67A2.35,2.35,0,0,0,11.63,32a2.42,2.42,0,0,0-1.35-.35,2.15,2.15,0,0,0-1.57.54A2.58,2.58,0,0,0,8.12,34c0,.52,0,1.33,0,2.42s0,1.92,0,2.48a2.58,2.58,0,0,0,.59,1.83,2.15,2.15,0,0,0,1.57.54,2.12,2.12,0,0,0,2.19-1.58,1.29,1.29,0,0,1,.37-.67,1.1,1.1,0,0,1,.71-.18h6A.62.62,0,0,1,20,39a.61.61,0,0,1,.19.45,6.54,6.54,0,0,1-1.41,4.22,8.09,8.09,0,0,1-3.6,2.47,14.15,14.15,0,0,1-4.83.79A11.5,11.5,0,0,1,3.3,45Z"/><path class="cls-1" d="M21.62,46.46a.61.61,0,0,1-.19-.45.66.66,0,0,1,0-.21L28,27.17a1.46,1.46,0,0,1,.44-.67,1.21,1.21,0,0,1,.87-.29h6.34a1.25,1.25,0,0,1,.88.29,1.54,1.54,0,0,1,.44.67L43.45,45.8a.66.66,0,0,1,0,.21.65.65,0,0,1-.19.45.62.62,0,0,1-.46.19h-5.4a1.1,1.1,0,0,1-1.14-.73L35.59,44H29.31l-.7,1.93a1.08,1.08,0,0,1-1.14.73h-5.4A.61.61,0,0,1,21.62,46.46ZM30.8,38.3h3.3l-1.66-5.44Z"/><path class="cls-1" d="M47,46.41a.76.76,0,0,1-.23-.55V27a.79.79,0,0,1,.79-.79h6a.79.79,0,0,1,.79.79V45.86a.8.8,0,0,1-.79.79h-6A.76.76,0,0,1,47,46.41Z"/><path class="cls-1" d="M58.52,46.41a.76.76,0,0,1-.23-.55V27a.79.79,0,0,1,.79-.79h4.61a1.27,1.27,0,0,1,1.2.67L69.82,35V27a.8.8,0,0,1,.79-.79H75.9a.8.8,0,0,1,.79.79V45.86a.82.82,0,0,1-.79.79H71.28a1.21,1.21,0,0,1-.76-.21,1.87,1.87,0,0,1-.43-.46l-4.94-7.45v7.33a.8.8,0,0,1-.79.79H59.08A.76.76,0,0,1,58.52,46.41Z"/></g></g></svg>
